X:57
T:Outs and Inn's
M:2/4
L:1/8
B:Thompson's Compleat Collection of 200 Favourite Country Dances, vol. 3 (London, 1773)
Z:Transcribed and edited by Flynn Titford-Mock, 2007
Z:abc's:AK/Fiddler's Companion
K:G
GBdg | BdBG | Acea | cecA | GBdg | BdBG | A/B/c/B/ (3AGF | G2g2 :|
|: gbge | fafd | egdB | cecA | gbge | fafd | eg (f/g/a/f/) | g2 G2 :|

